X:1
T:Salve Regina
T:P. E. Lange-Müller (1850-1926)
T:Thor Lange
T:Salve Regina
T:Op 65:3
T:©PA Aglert Edition may be freely distributed, duplicated, performed and recorded
T:©PA Aglert Edition may be freely distributed, duplicated, performed and recorded
T:©PA Aglert Edition may be freely distributed, duplicated, performed and recorded
T:©PA Aglert Edition may be freely distributed, duplicated, performed and recorded
T:©PA Aglert Edition may be freely distributed, duplicated, performed and recorded
T:©PA Aglert Edition may be freely distributed, duplicated, performed and recorded
C:P. E. Lange-Müller (1850-1926)
Z:©PA Aglert
Z:Edition may be freely distributed, duplicated, performed and recorded
%%score [ ( 1 2 ) ( 3 4 ) ( 5 6 ) ( 7 8 ) ]
L:1/8
Q:1/4=81
M:4/4
K:C
V:1 treble nm="S"
V:2 treble 
V:3 treble nm="A"
V:4 treble 
V:5 treble-8 nm="T"
V:6 treble-8 
V:7 bass nm="B"
V:8 bass 
V:1
"^Moderato"!mf! B2 c2 A2 B2 | G2 A2 c4 |[M:2/4] c4 |[M:4/4] d2 e2 c2 d2 | B2 c2 d4 |[M:2/4] G4 | %6
w: Glæd Dig, Eng- les|Her- sker- in-|de,|Glands fra hel- lig|Høj- des Tin-|de,|
w: ||||||
[M:4/4]!p! z8 | z4 z2!p! A2 | e6"^cresc." d2 |!<(! d2 d2 d2!<)! d2 |!f! g2 ^f2 e2 f2 | %11
w: ||||Lys er o- ver|
w: |et|Lys et|||
 d2 c2"^dim." B2 c2 | A2 G2 !courtesy!=F2 A2 |!p!!<(! G8!<)! | G4 z4 | z8 | z8 |!mf! B4 c4 | %18
w: Ver- den run- det,|o- ver Ver- den|run-|det!|||Hil Dig,|
w: |||||||
 A2 B2 G2 A2 | F3 G G3 A | A4 z4 |!p!!<(! (_B4 c2)!<)! d2 |!mf! d2 ^c2 A2 B2 | %23
w: Al- les al- tid|næ- re Hjælp og|Trøst,|Du, * hvem|Gud lob bæ- re|
w: |||||
!<(! !courtesy!=c2 (Bd) c2!<)! B2 |!f! g2 ^f2 e2 f2 | d2 c2"^dim." B2 c2 | A2 G2 !courtesy!=F2 A2 | %27
w: frem paa * Jor- den,|Him- me- ri- ges|Ju- le- ga- ve,|Him- me- ri- ges|
w: ||||
!p!!<(! G8!<)! | G4 z4 |!p! B2 c2 A2 B2 | G2 A2 c4 |[M:2/4] c4 |[M:4/4] d2 e2 c2 d2 | B2 c2 d4 | %34
w: ||Ju- le- ga- ve,|Chris- te mil-|de!|In- tet Liv gaar|mer til Spil-|
w: Ga-|ve!||||||
[M:2/4] d4 |[M:4/4]!p! d2 ^c2 A2 B2 | !courtesy!=c2 Bd c2 B2 |!p! ^f6"^cresc." e2 |!<(! e6!<)! e2 | %39
w: de,|in- gen Sjæl gaar|tabt ved * Dom- men,|||
w: |||in- gen|Sjæl thi|
!f! e6 d2 | (^c2 Bd) c2 B2 | d6 !courtesy!=c2 | (B2 ce) d2 e2 | !courtesy!=f2 e2 d2 e2 | %44
w: Du er|kom- * * men, thi|Du er|kom- * * men, thi|Du er kom- men,|
w: |||||
 c2 B2 A2 B2 | G2 F2 D4 | C4!mf! A2 B2 | G8 |!mp! G4 x4 |!p!!<(! (e8!<)! |!f!!>(! d8)!>)! | c8 |] %52
w: Du er kom- men,|Du er kom-|men, Du er|kom-|men,|kom-||men.|
w: ||||||||
V:2
 G2 G2 F2 F2 | E2 F2 G4 |[M:2/4] G4 |[M:4/4] B2 B2 A2 A2 | G2 G2 A4 |[M:2/4] G4 | %6
w: ||||||
[M:4/4] A2 B2 G2 A2 | _B2 Ac B2 A2 | A2 ^G2 E2 ^F2 | !courtesy!=G2 ^FA G2 A2 | d2 d2 d2 c2 | %11
w: Væld, hvor- fra et|u- ud- * grun- det|Lys, hvor- fra et|u- ud- * grun- det||
 B2 G2 G2 c2 | A2 G2 F2 A2 | (G2 C2 D4) | C4 x4 | x8 | x8 | x8 | x8 | x8 | x8 | _B4- B2 B2 | %22
w: |||||||||||
 A2 A2 ^F2 G2 | G2 G2 G2 B2 | d2 d2 d2 c2 | B2 G2 G2 c2 | A2 G2 F2 A2 | G2 C2!>(! D4!>)! | C4 x4 | %29
w: |||||Ju- le- ga-|ve!|
 G2 G2 F2 F2 | E2 F2 G4 |[M:2/4] G4 |[M:4/4] B2 B2 A2 A2 | G2 G2 A4 |[M:2/4] G4 | %35
w: ||||||
[M:4/4] A2 G2 ^F2 G2 | G2 G2 G2 B2 | B2 ^A2 ^F2 ^G2 | A2 ^GB A2 B2 | ^c6 d2 | x8 | B6 A2 | %42
w: ||in- gen Sjæl gaar|tabt ved * Dom- men,||||
 B2 GA B2 c2 | c2 c2 c2 B2 | G2 G2 G2 F2 | G2 F2 D4 | C4 F2 F2 | (E4 F4) | E4 A2 B2 | (G8 | %50
w: ||||||* Du er||
 A4 B4) | x8 |] %52
w: ||
V:3
!mf! E2 E2 C2 D2 | B,2 D2 (F2 D2) |[M:2/4] [CE]4 |[M:4/4] G2 G2 E2 F2 | D2 E2 (G2 ^F2) | %5
w: Glæd Dig, Eng- les|Her- sker- in- *|de,|Glands fra hel- lig|Høj- des Tin- *|
w: |||||
[M:2/4] [DG]4 |[M:4/4]!p! !courtesy!=F2 F2 E2 E2 | F2 F2 F2 F2 | E2 E2"^cresc." ^C2 D2 | %9
w: de,|Væld, hvor- fra et|u- ud- grun- det|Lys, hvor- fra et|
w: ||||
 D2 D2 D2 [DA]2 |!f! [GB]2 [^FB]2 [EB]2 [FA]2 | [D^F]2 [CE]2"^dim." [B,E]2 C2 | C2 C2 C2 C2 | %13
w: u- ud- grun- det|Lys er o- ver|Ver- den run- det,|o- ver Ver- den|
w: ||||
!p! (C2 A,2!>(! B,4)!>)! | C4 z4 | z8 | z8 |!mf! [B,F]4 [CE]4 | [DF]2 [DF]2 [CE]2 [CE]2 | %19
w: run- * *|det!|||Hil Dig,|Al- les al- tid|
w: ||||||
 [A,D]3 [CE] [CE]3 [CF] | [CF]4 z4 |!p!!<(! G6!<)! G2 |!mf! ^F2 E2 ^C2 D2 | %23
w: næ- re Hjælp og|Trøst,|Du, hvem|Gud lob bæ- re|
w: ||||
!<(! E2 D2 E2!<)! [DG]2 |!f! [GB]2 [^FB]2 [EB]2 [FA]2 | [D^F]2 [CE]2"^dim." [B,E]2 C2 | %26
w: frem paa Jor- den,|Him- me- ri- ges|Ju- le- ga- ve,|
w: |||
 C2 C2 C2 C2 |!p!!<(! C2!<)! A,2!>(! B,4!>)! | C4 z4 |!p! E2 E2 C2 D2 | B,2 D2 (F2 D2) | %31
w: Him- me- ri- ges|Ju- le- ga-|ve!|Ju- le- ga- ve,|Chris- te mil- *|
w: |||||
[M:2/4] C4 |[M:4/4] G2 G2 E2 F2 | D2 E2 (G2 ^F2) |[M:2/4] [DG]4 | %35
w: de!|In- tet Liv gaar|mer til Spil- *|de,|
w: ||||
[M:4/4]!p! !courtesy!=F2 E2 ^C2 D2 | E2 D2 E2 G2 | ^F2 E2 ^D2"^cresc." E2 | E6 [EB]2 | %39
w: in- gen Sjæl gaar|tabt ved Dom- men,|in- gen Sjæl gaar|tabt, thi|
w: ||||
!f! [E^c]6 [^FB]2 | (^G2 ^F2) G2 A2 | B6 A2 | (^F2 E2) F2 G2 | A6 G2 | E6 !courtesy!=F2 | %45
w: Du er|kom- * men, thi|Du er|kom- * men, thi|||
w: ||||Du er|kom- men,|
 E2 D2 (C2 B,2) | C4!mf! C2 B,2 | B,8 | C4!mp! [CF]2 [B,F]2 |!<(! (E8!<)! |!f!!>(! F8)!>)! | E8 |] %52
w: Du er kom- *|men, Du er|kom-|men, Du er|kom-||men.|
w: |||||||
V:4
 x8 | x8 |[M:2/4] x4 |[M:4/4] x8 | x8 |[M:2/4] x4 |[M:4/4] x8 | x8 | x8 | x8 | x8 | x8 | x8 | x8 | %14
w: ||||||||||||||
 x8 | x8 | x8 | x8 | x8 | x8 | x8 | x8 | x8 | x8 | x8 | x8 | x8 | x8 | x8 | x8 | x8 |[M:2/4] x4 | %32
w: ||||||||||||||||||
[M:4/4] x8 | x8 |[M:2/4] x4 |[M:4/4] x8 | x8 | x8 | x8 | x8 | x8 | (E2 ^F2 !courtesy!=G2) F2 | x8 | %43
w: |||||||||||
 !courtesy!=F2 E2 D2 E2 | E2 D2 C2 B,2 | x8 | x8 | x8 | x8 | (B,4 C4- | C4 D4) | x8 |] %52
w: Du er kom- men,|Du er kom- men,||||||||
V:5
!mf! G2 G2 A2 F2 | G2 F2 G4 |[M:2/4] [EG]4 |[M:4/4] B2 B2 c2 A2 | B2 G2 A4 |[M:2/4] [GB]4 | %6
w: Glæd Dig, Eng- les|Her- sker- in-|de,|Glands fra hel- lig|Høj- des Tin-|de,|
[M:4/4]!p! c2 B2 B2 c2 | d2 c2 d2 c2 | c2 B2"^cresc." ^G2 A2 | B2 A2 B2 [Ad]2 |!f! [Bd]6 [Ac]2 | %11
w: Væld, hvor- fra et|u- ud- grun- det|Lys, hvor- fra et|u- ud- grun- det|Lys er|
 B2 A2"^dim." G2 G2 | A2 A2 A2 F2 |!p!!<(! (E4!<)!!>(! F4)!>)! | E4 z4 |!mf! B4 c4 | A2 B2 G2 A2 | %17
w: o- ver Ver- den,|o- ver Ver- den|run- *|det!|Hil Dig,|Al- les al- tid|
 F3 G G3 A |!>(! (A2!>)! G2) z4 | z4 z2!mf! c2 | f2 e2 c2 d2 | _e2 (df) e2 d2 | A4 A2 G2 | %23
w: næ- re Hjælp og|Trøst, *|hvem|Gud lob bæ- re|frem paa * Jor- den,|frem i det|
!<(! G4 G2!<)! [GB]2 |!f! [Bd]6 [Ac]2 | B2 A2"^dim." G2 G2 | A2 A2 A2 F2 | %27
w: La- ve sit|Him- me-|ri- ges Ga- ve,|Him- me- ri- ges|
!p!!<(! (E4!<)!!>(! F4)!>)! | E4 z4 |!p! G2 G2 A2 F2 | G2 F2 G4 |[M:2/4] G4 |[M:4/4] B2 B2 c2 A2 | %33
w: Ga- *|ve!|Ju- le- ga- ve,|Chris- te mil-|de!|In- tet Liv gaar|
 B2 G2 A4 |[M:2/4] B4 |[M:4/4]!p! A2 A2 A2 G2 | G6 d2 | d2 ^c2 ^A2"^cresc." B2 | ^c2 B2 c2 e2 | %39
w: mer til Spil-|de,|in- gen Sjæl gaar|tabt, nej|in- gen Sjæl gaar|tabt ved Dom- men,|
!f! a2 ^g2 ^f2 g2 | e2 d2 ^c2 d2 | [Bd]6 [!courtesy!=ce]2 | (d2 e2) d2 c2 | [Ac]6 B2 | %44
w: Du er kom- men,|Du er kom- men,|Du er|kom- * men, thi|Du er|
 (c2 d2) e2 d2 | B2 A2 (G2 F2) | E4!mf! A2 F2 | G8 | G4!mp! A2 F2 |!<(! (G4 A4!<)! | %50
w: kom- * men, thi|Du er kom- *|men, Du er|kom-|men, Du er|kom- *|
!f!!>(! G8)!>)! | G8 |] %52
w: |men.|
V:6
 x8 | x4 (F2 D2) |[M:2/4] x4 |[M:4/4] x8 | x4 (G2 ^F2) |[M:2/4] x4 |[M:4/4] x8 | x8 | x8 | x8 | %10
 x8 | x8 | x8 | x8 | x8 | G4 G4 | x8 | x8 | x8 | x8 | x8 | x8 | x8 | x8 | x8 | x8 | x8 | x8 | x8 | %29
 x8 | G2 F2 (F2 D2) |[M:2/4] E4 |[M:4/4] x8 | B2 G2 (G2 ^F2) |[M:2/4] G4 |[M:4/4] x8 | x8 | x8 | %38
 x8 | x8 | x8 | x8 | x8 | x8 | x8 | x8 | x8 | x8 | x8 | x8 | x8 | x8 |] %52
V:7
!mf! E,2 C,2 F,2 D,2 | E,2 D,2 C,4 |[M:2/4] C,4 |[M:4/4] G,2 E,2 A,2 F,2 | G,2 E,2 D,4 | %5
w: Glæd Dig, Eng- les|Her- sker- in-|de,|Glands fra hel- lig|Høj- des Tin-|
[M:2/4] [G,,G,]4 |[M:4/4]!p! !courtesy!=F,2 D,2 E,2 C,2 | _B,,2 [F,,F,]2 [B,,F,]2 [F,,F,]2 | %8
w: de,|Væld, hvor- fra et|u- ud- grun- det|
 A,,2 B,,2"^cresc." ^C,2 B,,A,, | G,,2 [D,,D,]2 [G,,D,]2 [^F,,^F,]2 | %10
w: Lys, hvor- fra et *|u- ud- grun- det|
!f! [E,,E,]2 [^F,,^F,]2 [G,,G,]2 A,,2 | B,,2 C,2"^dim." D,2 [E,,E,]2 | %12
w: Lys er o- ver|Ver- den run- det,|
 [!courtesy!=F,,!courtesy!=F,]2 [G,,G,]2 [A,,A,]2 [D,,D,]2 |!p! (G,4 G,,4) | C,4 z4!mf! | G,4 E,4 | %16
w: o- ver Ver- den|run- *|det!|Hil Dig,|
 F,2 F,2 E,2 E,2 | D,4 C,4 | B,,6 A,,2 | D,3 C, C,3 [F,,F,] | [F,,F,]4 C,2 _B,,2 | G,,6 G,,2 | %22
w: Al- les al- tid|næ- re|al- tid|næ- re Hjælp og|Trøst, hil Dig,|Al- les|
 A,,4 ^F,2 (E,D,) |!<(! C,2 [G,,G,]2 [C,G,]2 ([G,,G,]!<)![^F,,^F,]) | %24
w: Trøst, Du, hvem *|Gud lob bæ- re *|
!f! [E,,E,]2 [^F,,^F,]2 [G,,G,]2 A,,2 | B,,2 C,2"^dim." D,2 [E,,E,]2 | %26
w: Him- me- ri- ges|Ju- le- ga- ve,|
 [!courtesy!=F,,!courtesy!=F,]2 [G,,G,]2 [A,,A,]2 [D,,D,]2!p! | %27
w: Him- me- ri- ges|
!<(! G,2 A,2!<)!!>(! (G,2 G,,2)!>)! | C,4 z4 |!p! E,2 C,2 F,2 D,2 | E,2 D,2 C,4 |[M:2/4] C,4 | %32
w: Ju- le- ga- *|ve!|Ju- le- ga- ve,|Chris- te mil-|de!|
[M:4/4] G,2 E,2 A,2 F,2 | G,2 E,2 D,4 |[M:2/4] [G,,G,]4 |[M:4/4]!p! D,2 E,2 ^F,2 (E,D,) | %36
w: In- tet Liv gaar|mer til Spil-|de,|in- gen Sjæl gaar *|
 C,2 [G,,G,]2 [C,G,]2 [G,,G,]2 | B,,2 ^C,2 ^D,2"^cresc." (C,B,,) | %38
w: tabt ved Dom- men,|in- gen Sjæl gaar *|
 A,,2 [E,,E,]2 [A,,E,]2 [^G,,^G,]2 |!f! [^F,,^F,]2 [^G,,^G,]2 [A,,A,]2 B,,2 | ^C,2 D,2 E,2 ^F,2 | %41
w: tabt ved Dom- men,|Du er kom- men,|Du er kom- men,|
 !courtesy!=G,2 ^F,2 E,2 F,2 | D,2 !courtesy!=C,2 B,,2 A,,2 | D,2 E,2 !courtesy!=F,2 [G,,G,]2 | %44
w: Du er kom- men,|Du er kom- men,|Du er kom- men,|
 [A,,A,]2 B,,2 C,2 D,2 | E,2 F,2 G,4 | [C,G,]4!mf! F,2 D,2 | E,4 D,4 | C,4!mp! F,2 D,2 | %49
w: Du er kom- men,|Du er kom-|men, Du er|kom- *|men, Du er|
!<(! (E,4 F,4!<)! |!f!!>(! G,4 G,,4)!>)! | C,8 |] %52
w: kom- *||men.|
V:8
 x8 | x8 |[M:2/4] x4 |[M:4/4] x8 | x8 |[M:2/4] x4 |[M:4/4] x8 | x8 | x8 | x8 | x8 | x8 | x8 | %13
w: |||||||||||||
w: |||||||||||||
 G,,8 | C,4 x4 | E,4 C,4 | F,2 D,2 E,2 C,2 | x8 | x8 | x8 | x8 | x8 | x8 | x8 | x8 | x8 | x8 | %27
w: ||||||||||||||
w: ||||||||||||||
 G,,8 | C,4 x4 | x8 | x8 |[M:2/4] x4 |[M:4/4] x8 | x8 |[M:2/4] x4 |[M:4/4] x8 | x8 | x8 | x8 | x8 | %40
w: |||||||||||||
w: Ga-|ve!||||||||||||
 x8 | x8 | x8 | x8 | x8 | x4 (G,2 G,,2) | x8 | x8 | x8 | x8 | x8 | x8 |] %52
w: ||||||||||||
w: ||||||||||||

